build/svg/cmd/lc_bezierfill.svg

<?xml version="1.0" encoding="UTF-8" standalone="no"?>
<svg
   xmlns:dc="http://purl.org/dc/elements/1.1/"
   xmlns:cc="http://creativecommons.org/ns#"
   xmlns:rdf="http://www.w3.org/1999/02/22-rdf-syntax-ns#"
   xmlns:svg="http://www.w3.org/2000/svg"
   xmlns="http://www.w3.org/2000/svg"
   xmlns:sodipodi="http://sodipodi.sourceforge.net/DTD/sodipodi-0.dtd"
   xmlns:inkscape="http://www.inkscape.org/namespaces/inkscape"
   viewBox="0 0 24 24"
   version="1.1"
   id="svg8"
   sodipodi:docname="lc_bezierfill.svg"
   inkscape:version="0.92.5 (2060ec1f9f, 2020-04-08)"
   inkscape:export-filename="/home/jupiter007/Libreoffice yaru theme fullcolor/build/cmd/lc_bezierfill.png"
   inkscape:export-xdpi="95"
   inkscape:export-ydpi="95">
  <metadata
     id="metadata14">
    <rdf:RDF>
      <cc:Work
         rdf:about="">
        <dc:format>image/svg+xml</dc:format>
        <dc:type
           rdf:resource="http://purl.org/dc/dcmitype/StillImage" />
      </cc:Work>
    </rdf:RDF>
  </metadata>
  <defs
     id="defs12" />
  <sodipodi:namedview
     pagecolor="#ffffff"
     bordercolor="#666666"
     borderopacity="1"
     objecttolerance="10"
     gridtolerance="10"
     guidetolerance="10"
     inkscape:pageopacity="0"
     inkscape:pageshadow="2"
     inkscape:window-width="1920"
     inkscape:window-height="1011"
     id="namedview10"
     showgrid="true"
     inkscape:zoom="27.812867"
     inkscape:cx="8.2526947"
     inkscape:cy="10.199096"
     inkscape:window-x="1920"
     inkscape:window-y="32"
     inkscape:window-maximized="1"
     inkscape:current-layer="svg8">
    <inkscape:grid
       type="xygrid"
       id="grid839" />
  </sodipodi:namedview>
  <path
     d="M 18.5,7 C 18.197314,7.014 18.1016,7.02725 18.03125,7.03125 11.897043,7.2768499 7,12.3055 7,18.5 7,18.6672 7.024183,18.8345 7.03125,19 h 11 H 19 20 V 7 Z"
     id="path2"
     inkscape:connector-curvature="0"
     style="fill:#b3b3b3" />
  <path
     d="m 18.5,5.5 a 13,13 0 0 0 -13,13 h 1 a 12,12 0 0 1 12,-12 12,12 0 0 1 1,0.05078 V 5.542968 a 13,13 0 0 0 -1,-0.04297 z"
     id="path2-3"
     style="fill:#1463a5;fill-opacity:1;stroke:#1463a5;stroke-opacity:1"
     inkscape:connector-curvature="0" />
  <path
     inkscape:connector-curvature="0"
     style="opacity:1;fill:#808080;fill-opacity:1;fill-rule:nonzero;stroke:none;stroke-width:2;stroke-linecap:round;stroke-linejoin:round;stroke-miterlimit:4;stroke-dasharray:none;stroke-opacity:1"
     d="M 5,4.0000001 C 4.4459999,4.0000001 4,4.446 4,5 V 7 C 4,7.554 4.4459999,8 5,8 H 7 C 7.5540001,8 8,7.554 8,7 H 20 V 5 H 8 C 8,4.446 7.5540001,4.0000001 7,4.0000001 Z"
     id="rect878" />
  <rect
     style="opacity:0.7;vector-effect:none;fill:#000000;fill-opacity:1;stroke:none;stroke-width:1;stroke-linecap:round;stroke-linejoin:round;stroke-miterlimit:4;stroke-dasharray:none;stroke-dashoffset:0;stroke-opacity:1"
     id="rect9084-4"
     width="4"
     height="4"
     x="19"
     y="4" />
  <rect
     style="opacity:1;vector-effect:none;fill:#aee3f8;fill-opacity:1;stroke:none;stroke-width:1;stroke-linecap:round;stroke-linejoin:round;stroke-miterlimit:4;stroke-dasharray:none;stroke-dashoffset:0;stroke-opacity:1"
     id="rect9101-4"
     width="2"
     height="2"
     x="20"
     y="5" />
  <rect
     style="opacity:1;fill:#ffffff;fill-opacity:1;fill-rule:nonzero;stroke:none;stroke-width:2;stroke-linecap:round;stroke-linejoin:round;stroke-miterlimit:4;stroke-dasharray:none;stroke-opacity:1"
     id="rect858"
     width="2"
     height="1.9570312"
     x="5"
     y="5.0429688" />
  <rect
     style="opacity:0.7;vector-effect:none;fill:#000000;fill-opacity:1;stroke:none;stroke-width:1;stroke-linecap:round;stroke-linejoin:round;stroke-miterlimit:4;stroke-dasharray:none;stroke-dashoffset:0;stroke-opacity:1"
     id="rect9084-4-4"
     width="4"
     height="4"
     x="4"
     y="17.999998" />
  <rect
     style="opacity:1;vector-effect:none;fill:#aee3f8;fill-opacity:1;stroke:none;stroke-width:1;stroke-linecap:round;stroke-linejoin:round;stroke-miterlimit:4;stroke-dasharray:none;stroke-dashoffset:0;stroke-opacity:1"
     id="rect9101-4-4"
     width="2"
     height="2"
     x="5"
     y="18.999998" />
</svg>

<svg xmlns="http://www.w3.org/2000/svg" viewBox="0 0 24 24"><path d="M18.5 7c-.303.014-.398.027-.469.031C11.897 7.277 7 12.306 7 18.5c0 .167.024.334.031.5H20V7z" fill="#b3b3b3"/><path d="M18.5 5.5a13 13 0 00-13 13h1a12 12 0 0112-12 12 12 0 011 .05V5.544a13 13 0 00-1-.043z" fill="#1463a5" stroke="#1463a5"/><path d="M5 4c-.554 0-1 .446-1 1v2c0 .554.446 1 1 1h2c.554 0 1-.446 1-1h12V5H8c0-.554-.446-1-1-1z" fill="gray"/><path opacity=".7" d="M19 4h4v4h-4z"/><path fill="#aee3f8" d="M20 5h2v2h-2z"/><path fill="#fff" d="M5 5.043h2V7H5z"/><path opacity=".7" d="M4 18h4v4H4z"/><path fill="#aee3f8" d="M5 19h2v2H5z"/></svg>
